X: 1885
T: Tûtiyâ-yı Dîde-i...
C: Ahmet Avni Konuk
O: Turkey
F: http://compmusic.upf.edu/node/140
N: isfahanek--kupe--duyek--tutiya-yi--ahmet_avni_konuk
N: makam= isfahanek
N: form= kupe
N: usul= duyek = 8/4
M: 8/4
L: 1/16
K: C _1/4B   
Q: 1/4=57
%%MIDI tuningsystem comma53
z4 =B2^3/4c2 B4 c4 d3c B2c2 d3c d4  | \
w:  Tû *  *  ti yâ *  *  *  yı   | 
z4 ^c2d2 e2f2 e2d2 e2g2 f2e2 eddc d4  | 
w:  dî *  *  *  de  *  i  *  *  *  üf  | 
z4 ^3/4f2f2 f4 f4 f4 e2f2 a2g2 =f2e2  | \
w:  tâ *  *  de sin  *  *  mut  | 
d4 e2g2 .f4 e2f2 e2d2 d2^3/4c2 d4 z4  | 
w:  *  rıb  *  *  he *  mân    | 
z4 g2g2 g4 a4 a2c'2 _2/4b2a2 a2g2 ^3/4f2^3/4e2  | \
w:  Is *  *  fa hâ *  *  *  nek  | 
^3/4f4 f2c'2 b4 a4 a2g2 g2^2/4f2 g3f e4  | 
w:  *  le  *  *  sa fâ  *  *  *  ver   | 
z4 c2c2 c4 _2/4d4 d2c2 c2d2 dc_2/4BA B2c2  | \
w:  bez *  *  me  gel  *  *  *  lûtf_  | 
_2/4B4 c2_2/4d2 c4 A4 B2c2 B2A2 A6z2  | 
w:  *  et  *  *  a man    | 
|


